packages/core/src/svgs/tokens/mono/AIT.svg

<svg width="24" height="24" viewBox="0 0 24 24" fill="none" xmlns="http://www.w3.org/2000/svg">
<path d="M10.1105 5.98279C9.84941 5.64495 9.47413 5.41386 9.05493 5.33276H13.1162C13.7663 5.33276 14.1941 5.9439 14.3274 6.24391L18.6665 14.1665V17.6388C18.572 18.3223 18.1442 18.6723 17.6609 18.6723C17.272 18.6723 16.6887 18.0333 16.5497 17.7166L10.9439 7.01061L10.1161 5.98279H10.1105Z" fill="white"/>
<path d="M12.2384 15.8892H6.12704C5.9437 15.9781 5.54925 16.167 5.49923 16.2059C5.45479 16.2447 5.127 17.8616 4.97144 18.6671H13.294C13.4996 18.6671 13.6273 18.4393 13.5274 18.2559L12.2384 15.8892Z" fill="white"/>
<path d="M6.2047 15.9777C5.14909 18.0111 7.13807 18.6556 7.18807 18.6667H3.46014C1.77672 18.6667 1.88784 17.3111 2.15452 16.6332C3.9157 13.3054 7.46587 6.57726 7.58809 6.29392C7.7381 5.93834 8.1659 5.33276 8.88815 5.33276C9.46595 5.33276 9.86597 5.64944 9.9882 5.805L10.9327 6.9995C9.7104 9.31626 7.04362 14.3498 6.2047 15.9777Z" fill="white"/>
<path d="M22 5.97211V17.8448C22 18.3005 21.6388 18.6671 21.1943 18.6671H17.5886C18.3275 18.6671 18.5998 18.0004 18.6664 17.6671V5.96654C18.6664 5.61653 18.9887 5.32764 19.3331 5.32764H21.3722C21.7222 5.32764 22 5.61653 22 5.96654V5.97211Z" fill="white"/>
</svg>

<svg xmlns="http://www.w3.org/2000/svg" width="24" height="24" fill="none" viewBox="0 0 24 24">
    <path fill="#fff" d="M10.11 5.983a1.76 1.76 0 0 0-1.055-.65h4.061c.65 0 1.078.61 1.211.91l4.34 7.923v3.473c-.095.683-.523 1.033-1.006 1.033-.389 0-.972-.639-1.111-.955L10.944 7.01l-.828-1.028zm2.128 9.907H6.127c-.183.088-.578.277-.628.316-.044.039-.372 1.656-.528 2.461h8.323c.206 0 .333-.228.233-.411z"/>
    <path fill="#fff" d="M6.205 15.978c-1.056 2.033.933 2.678.983 2.689H3.46c-1.683 0-1.572-1.356-1.305-2.034 1.76-3.328 5.31-10.056 5.433-10.34.15-.355.578-.96 1.3-.96.578 0 .978.316 1.1.472L10.933 7c-1.223 2.316-3.89 7.35-4.728 8.978M22 5.972v11.873a.813.813 0 0 1-.806.822H17.59c.739 0 1.01-.667 1.077-1v-11.7c0-.35.323-.64.667-.64h2.04c.35 0 .627.29.627.64z"/>
</svg>
